src/assets/svg/funding-img4.svg

<svg width="50" height="50" viewBox="0 0 50 50" fill="none" xmlns="http://www.w3.org/2000/svg">
<path d="M22.4442 9.66667C22.4442 11.7 23.7904 13.65 26.1867 15.0878C28.583 16.5256 31.8331 17.3333 35.222 17.3333C38.6109 17.3333 41.8609 16.5256 44.2572 15.0878C46.6535 13.65 47.9998 11.7 47.9998 9.66667C47.9998 7.63334 46.6535 5.68329 44.2572 4.24551C41.8609 2.80774 38.6109 2 35.222 2C31.8331 2 28.583 2.80774 26.1867 4.24551C23.7904 5.68329 22.4442 7.63334 22.4442 9.66667Z" stroke="#00C700" stroke-width="3" stroke-linecap="round" stroke-linejoin="round"/>
<path d="M22.4443 9.66699V19.8892C22.4443 24.1238 28.1662 27.5559 35.2221 27.5559C42.278 27.5559 47.9999 24.1238 47.9999 19.8892V9.66699" stroke="#00C700" stroke-width="3" stroke-linecap="round" stroke-linejoin="round"/>
<path d="M22.4442 19.8887V30.1109C22.4442 34.3454 28.1661 37.7776 35.222 37.7776C42.2779 37.7776 47.9998 34.3454 47.9998 30.1109V19.8887" stroke="#00C700" stroke-width="3" stroke-linecap="round" stroke-linejoin="round"/>
<path d="M22.4444 30.1117V40.3339C22.4444 44.5684 28.1663 48.0005 35.2222 48.0005C42.2781 48.0005 48 44.5684 48 40.3339V30.1117M12.2222 17.3339H5.83333C4.81667 17.3339 3.84165 17.7377 3.12276 18.4566C2.40387 19.1755 2 20.1505 2 21.1672C2 22.1839 2.40387 23.1589 3.12276 23.8778C3.84165 24.5967 4.81667 25.0005 5.83333 25.0005H8.38889C9.40555 25.0005 10.3806 25.4044 11.0995 26.1233C11.8184 26.8422 12.2222 27.8172 12.2222 28.8339C12.2222 29.8505 11.8184 30.8256 11.0995 31.5445C10.3806 32.2633 9.40555 32.6672 8.38889 32.6672H2M7.11111 32.6672V35.2228M7.11111 14.7783V17.3339" stroke="#00C700" stroke-width="3" stroke-linecap="round" stroke-linejoin="round"/>
</svg>

<svg xmlns="http://www.w3.org/2000/svg" width="50" height="50" fill="none"><path stroke="#00C700" stroke-linecap="round" stroke-linejoin="round" stroke-width="3" d="M22.444 9.667c0 2.033 1.346 3.983 3.743 5.42 2.396 1.439 5.646 2.246 9.035 2.246s6.639-.807 9.035-2.245S48 11.7 48 9.667s-1.346-3.984-3.743-5.421S38.611 2 35.222 2s-6.639.808-9.035 2.246-3.743 3.387-3.743 5.42"/><path stroke="#00C700" stroke-linecap="round" stroke-linejoin="round" stroke-width="3" d="M22.444 9.667v10.222c0 4.235 5.722 7.667 12.778 7.667S48 24.124 48 19.889V9.667"/><path stroke="#00C700" stroke-linecap="round" stroke-linejoin="round" stroke-width="3" d="M22.444 19.889V30.11c0 4.234 5.722 7.667 12.778 7.667S48 34.345 48 30.11V19.889"/><path stroke="#00C700" stroke-linecap="round" stroke-linejoin="round" stroke-width="3" d="M22.444 30.112v10.222c0 4.234 5.722 7.666 12.778 7.666S48 44.569 48 40.335V30.112M12.222 17.334H5.833a3.833 3.833 0 1 0 0 7.666H8.39a3.833 3.833 0 0 1 0 7.667H2m5.111 0v2.556m0-20.445v2.556"/></svg>
